icons/op-shortcuts-16.svg

<svg width="16" height="16" viewBox="0 0 16 16" fill="none" xmlns="http://www.w3.org/2000/svg">
<path fill-rule="evenodd" clip-rule="evenodd" d="M2.5 2.5V13.5H13.5V2.5H2.5ZM2 1C1.44772 1 1 1.44772 1 2V14C1 14.5523 1.44772 15 2 15H14C14.5523 15 15 14.5523 15 14V2C15 1.44772 14.5523 1 14 1H2Z" fill="#1F2328"/>
<path d="M4.64062 12.0449C4.00977 12.0449 3.60938 11.6309 3.60938 10.9531C3.60938 10.2832 4.00781 9.86133 4.63672 9.86133C5.05664 9.86133 5.40625 10.0645 5.51953 10.3613C5.53906 10.4102 5.55078 10.4609 5.55078 10.502C5.55078 10.6426 5.44141 10.7246 5.30664 10.7246C5.19336 10.7246 5.125 10.6797 5.06641 10.5762C4.96289 10.3926 4.83594 10.3086 4.6543 10.3086C4.36523 10.3086 4.1875 10.5469 4.1875 10.9512C4.1875 11.3633 4.36523 11.5977 4.65039 11.5977C4.84961 11.5977 4.97266 11.5 5.06055 11.3516C5.13672 11.2324 5.19922 11.1836 5.32031 11.1836C5.45312 11.1836 5.56055 11.2715 5.56055 11.4121C5.56055 11.457 5.54883 11.5039 5.52344 11.5605C5.39844 11.8457 5.04102 12.0449 4.64062 12.0449Z" fill="#1F2328"/>
<path d="M6.03758 11.4648V10.3359H5.9282C5.79344 10.3359 5.7075 10.2539 5.7075 10.1211C5.7075 9.98828 5.79344 9.90625 5.9282 9.90625H6.03758V9.67383C6.03758 9.49023 6.145 9.37695 6.32273 9.37695C6.50047 9.37695 6.60789 9.49023 6.60789 9.67383V9.90625H6.80906C6.94383 9.90625 7.02781 9.99023 7.02781 10.1211C7.02781 10.252 6.94383 10.3359 6.80906 10.3359H6.60789V11.3379C6.60789 11.4863 6.65867 11.5488 6.78172 11.5586L6.81883 11.5625C6.95945 11.5781 7.03562 11.6367 7.03562 11.7695C7.03562 11.9375 6.87156 12.0234 6.63133 12.0234H6.6118C6.23094 12.0234 6.03758 11.834 6.03758 11.4648Z" fill="#1F2328"/>
<path d="M7.61227 12.041C7.44039 12.041 7.32711 11.9336 7.32711 11.7441V10.1504C7.32711 9.96875 7.43844 9.86328 7.6025 9.86328C7.76266 9.86328 7.87203 9.96875 7.87203 10.1504V10.2871H7.88375C7.93844 10.0273 8.11031 9.87305 8.3193 9.87305C8.39547 9.87305 8.45602 9.89062 8.49703 9.92578C8.55172 9.96875 8.57906 10.0391 8.57906 10.1367C8.57906 10.2266 8.55172 10.2949 8.49703 10.3418C8.44234 10.3887 8.36031 10.4141 8.24898 10.416C7.98922 10.4199 7.89742 10.5664 7.89742 10.8145V11.7441C7.89742 11.9336 7.78609 12.041 7.61227 12.041Z" fill="#1F2328"/>
<path d="M9.10297 12.041C8.93695 12.041 8.81781 11.9395 8.81781 11.7441V9.4375C8.81781 9.24219 8.93695 9.13867 9.10297 9.13867C9.27094 9.13867 9.38812 9.24219 9.38812 9.4375V11.7441C9.38812 11.9395 9.27094 12.041 9.10297 12.041Z" fill="#1F2328"/>
<path d="M10.9023 11.9492C10.7421 11.9492 10.6464 11.8457 10.6464 11.6777V11.1191H10.1132C9.95305 11.1191 9.85148 11.0254 9.85148 10.8691C9.85148 10.7148 9.95305 10.6211 10.1132 10.6211H10.6464V10.0586C10.6464 9.89258 10.7441 9.78711 10.9023 9.78711C11.0605 9.78711 11.1562 9.89258 11.1562 10.0586V10.6211H11.6874C11.8495 10.6211 11.9511 10.7148 11.9511 10.8691C11.9511 11.0254 11.8476 11.1191 11.6855 11.1191H11.1562V11.6777C11.1562 11.8457 11.0605 11.9492 10.9023 11.9492Z" fill="#1F2328"/>
</svg>

<svg xmlns="http://www.w3.org/2000/svg" width="16" height="16" viewBox="0 0 16 16"><path d="M2 1h12a1 1 0 0 1 1 1v12a1 1 0 0 1-1 1H2a1 1 0 0 1-1-1V2a1 1 0 0 1 1-1Zm.5 1.5v11h11v-11Z"/><path d="M4.641 12.045c-.631 0-1.032-.414-1.032-1.092 0-.67.399-1.092 1.028-1.092.42 0 .769.204.883.5.019.049.031.1.031.141 0 .141-.11.223-.244.223-.114 0-.182-.045-.241-.149-.103-.183-.23-.267-.412-.267-.289 0-.466.238-.466.642 0 .412.177.647.462.647.2 0 .323-.098.411-.246.076-.12.138-.168.259-.168.133 0 .241.087.241.228a.349.349 0 0 1-.038.148c-.125.286-.482.485-.882.485Zm1.397-.58v-1.129h-.11c-.135 0-.221-.082-.221-.215s.086-.215.221-.215h.11v-.232c0-.184.107-.297.285-.297.177 0 .285.113.285.297v.232h.201c.135 0 .219.084.219.215s-.084.215-.219.215h-.201v1.002c0 .148.051.211.174.221l.037.003c.14.016.217.075.217.208 0 .168-.164.253-.405.253h-.019c-.381 0-.574-.189-.574-.558Zm1.574.576c-.172 0-.285-.107-.285-.297V10.15c0-.181.111-.287.276-.287.16 0 .269.106.269.287v.137h.012c.054-.26.226-.414.435-.414a.27.27 0 0 1 .178.053c.055.043.082.113.082.211 0 .09-.027.158-.082.205-.055.047-.137.072-.248.074-.26.004-.352.15-.352.399v.929c0 .19-.111.297-.285.297Zm1.491 0c-.166 0-.285-.101-.285-.297V9.438c0-.196.119-.299.285-.299.168 0 .285.103.285.299v2.306c0 .196-.117.297-.285.297Zm1.799-.092c-.16 0-.256-.103-.256-.271v-.559h-.533c-.16 0-.262-.094-.262-.25 0-.154.102-.248.262-.248h.533v-.562c0-.166.098-.272.256-.272s.254.106.254.272v.562h.531c.163 0 .264.094.264.248 0 .156-.103.25-.266.25h-.529v.559c0 .168-.096.271-.254.271Z"/></svg>
